X: 729
T: Ey Verd-i
C: Tâhir Ağa
O: Turkey
F: http://compmusic.upf.edu/node/140
N: hicazkar--sarki--devrihindi--ey_verd-i--tahir_aga
N: makam= hicazkar
N: form= sarki
N: usul= devrihindi = 7/4
M: 7/4
L: 1/16
K: C _1/4B _7/8e _7/8A ^f
Q: 1/4=54
%%MIDI tuningsystem comma53
g2=a4_b/a/b/c'/bagfedfg  | =a4defga_bagg2a4b/a/b/c'/bagfedfga4  | 
w:   |   | 
defg=a_baggfg4g/f/g/_7/8a/  | gfedcdede4d=fed  | 
w:   |   | 
dcBAcBc4cedcBA  | GABcd4Bcdeg=f2e  | 
w:   |   | 
=fefgfef3/2a/gfe3/2d/c2cB  | BcBAA/G/A/B/AGG4fg=a2  | 
w:   |   | 
=a_bagfga2z2defgab  | =ag/a/gfg2z2fg_7/8a_bc'bag  | 
w:   |   | 
fedcBABcd2cBBAAG  | G2z2fg=a2a_bagfga2  | 
w:   |   | 
z2defg=a_bag/a/gfg2z2  | fga_bc'bagfedcBABc  | 
w:   |   | 
d2cBBAAGG2z2|
w:   | 


